X:1
T:Armley, LM
T:Armley, LM
T:Joseph Funk, 1832
T:Public Domain Courtesy of the Cyber Hymnal™
C:Joseph Funk, 1832
Z:Public Domain
Z:Courtesy of the Cyber Hymnal™
%%score ( 1 2 ) ( 3 4 )
L:1/8
Q:1/4=105
M:3/2
K:C
V:1 treble 
V:2 treble 
V:3 bass 
V:4 bass 
V:1
 [CE]2 | (A>B c2) [EB]2 | [Ec]4 [EB]2 | (A>B c2) (BA) | (A2 G2) E2 | (A>B) c2 [EB]2 | %6
 (c2 B2) (3(A{c'}Bc) | ([FB]2 [EA]2) [D^G]2 | [CA]4 [EB]2 | [Ec]4 [Gd]2 | (e2 d2) (3(d{g'}ef) | %11
 (e2 d2) [Ec]2 | (c2 B2) [EB]2 | [Ee]4 [EA]2 | (A2 ^G2) (3(G{c'}Bc) x2 | ([FB]2 [EA]2) [D^G]2 | %16
 [EA]4 |] %17
V:2
 x2 | E4 x2 | x6 | E4 F2 | E4 x2 | E4 x2 | E4 E2 | x6 | x6 | x6 | G4 E2 | E4 x2 | E4 x2 | x6 | %14
 E4 E4 | x6 | x4 |] %17
V:3
 [E,A,]2 | (C>D E2) [E,^G,]2 | A,4 [^G,B,]2 | (C>D E2) (DC) | (C2 B,2) [E,^G,]2 | A,4 [E,^G,]2 | %6
 A,2 [E,G,]2 [C,C]2 | [D,D]2 [E,C]2 [E,B,]2 | [A,,A,]4 [E,^G,]2 | A,4 [G,B,]2 | %10
 C2 [G,B,]2 (3(B,{B}CD) | ([A,C]2 [^G,B,]2) A,2 | (A,2 G,2) [E,^G,]2 | [C,A,]4 [A,,C]2 | %14
 (C2 B,2) (3(C{d}DE) x2 | ([D,D]2 [E,C]2) [E,B,]2 | [A,,A,]4 |] %17
V:4
 x2 | A,,4 x2 | A,4 x2 | A,4 D,2 | E,4 x2 | (C,>B,,) A,,2 x2 | A,2 x4 | x6 | x6 | A,4 x2 | %10
 C2 G,2 x2 | x4 A,2 | E,4 x2 | x6 | E,4 C,2 x2 | x6 | x4 |] %17

